X:1
T:Title
%%score { ( 1 3 ) | ( 2 4 ) }
L:1/8
M:6/8
K:Eb
V:1 treble nm="Grand Piano"
V:3 treble 
V:2 bass 
V:4 bass 
V:1
 z3 z2[Q:1/4=90] [B,GB] | [B,_G=A]2 [B,=GB] [B,F_A]2 [B,EG] | [B,G]2 [A,F] [G,E]2 [_DG] | %3
 A-[DA][G,EG] .[CEA]2 [Ec] |[M:5/8] [DF]-[DF]- [DF]3 |[M:1/8] B | %6
[M:3/4] [B,_G=A]2 [B,=GB] [B,F_A]2 [_DEG] | .[Cc]2 z .B3 | G2[K:bass] z[K:treble] .[DG]3 | %9
[M:5/8] E-E- E3 |[M:1/8] G |[M:3/4] z2 z D z2 | [G,CE]3 D2 E | F2 z .A3 |[M:5/8] F-F- F3 | %15
[M:1/8] [B,GB] |[M:3/4] [B,_G=A]2 [B,=GB] [B,F_A]2 [_DEG] | .[Cc]2 z .B3 | %18
 G2[K:bass] z[K:treble] .[DG]3 |[M:5/8] [G,E]-[G,E]- [G,E]3 |[M:1/8] B |[M:3/4] B3 B2 B | %22
 B3 B2 B, | G2[K:bass] z[K:treble] .[DG]3 |[M:5/8] [G,E]-[G,E]- [G,E]3 |] %25
V:2
 z3 z2 E, | E,2 E, E,2 E, | B,,2 =B,, C,2 [B,,E,] | E,F,B,, z E,[=A,,F,] |[M:5/8] F,3 z2 | %5
[M:1/8] [E,G,E] |[M:3/4] E,2 E, E,2 E, | z B, [A,E]G, F,[B,,G,] | .[B,,E,B,]2 .B,,2 B,B,, | %9
[M:5/8] z z2 G,2 |[M:1/8] G, |[M:3/4] z C .C,2 C=B,, | G,,3 [G,=B,]2 [G,C] | %13
 .[F,B,C]2 [E,B,_D]C z [=A,CE] |[M:5/8] [B,D]-[B,D]- [B,D]3 |[M:1/8] E, |[M:3/4] E,2 E, E,2 E, | %17
 z B, [A,E]G, F,[B,,G,] | .[B,,E,B,]2 .B,,2 B,B,, |[M:5/8] E,-E,- E,3 |[M:1/8] B, | %21
[M:3/4] B,3 B,2 B, | B,3 B,2 B,, | .[B,,E,B,]2 .B,,2 B,B,, |[M:5/8] E,-E,- E,3 |] %25
V:3
 x6 | x6 | D3 z3 | .C3 z3 |[M:5/8] z z2 A,2 |[M:1/8] x |[M:3/4] x6 | E-[Ed] eE DB, | %8
 z[K:bass] F, [G,B,][K:treble]A, z [B,DF] |[M:5/8] A,3 z2 |[M:1/8] x | %11
[M:3/4] .[G,EG]2 [A,DF] [G,E]2 [G,DF] | x6 | z D .G2 Dc |[M:5/8] x5 |[M:1/8] x |[M:3/4] x6 | %17
 E-[Ed] eE DB, | z[K:bass] F, [G,B,][K:treble]A, z [A,DF] |[M:5/8] x5 |[M:1/8] x |[M:3/4] x6 | x6 | %23
 z[K:bass] F, [G,B,][K:treble]A, z [A,DF] |[M:5/8] x5 |] %25
V:4
 x6 | x6 | x6 | .A,,3 .A,,3 |[M:5/8] B,,-B,,- B,,3 |[M:1/8] x |[M:3/4] x6 | A,,3 .B,,3 | %8
 z2 z .B,,3 |[M:5/8] E,-E,- E,3 |[M:1/8] x |[M:3/4] C,2 z .C,3 | x6 | z2 z .A,3 |[M:5/8] x5 | %15
[M:1/8] x |[M:3/4] x6 | A,,3 .B,,3 | z2 z .B,,3 |[M:5/8] x5 |[M:1/8] x |[M:3/4] x6 | x6 | %23
 z2 z .B,,3 |[M:5/8] x5 |] %25

